X: 8765
T: Cuckoo
R: waltz
M: 3/4
K: Dmajor
f2|d2z2f2|d2z2f2|a2afdf|e4g2|c2z2e2|A2z2e2|g2gece|d4f2|d2z2f2|d2z2f2|
a2 afdf|e4g2|c2z2e2|A2z2e2|g2gece|d6|f6-|f6-|f2 e2f2|
g2 a2b2|a6-|a6|f6-|f6|e6-|e6-|e2 d2e2|a2g2e2|f6-|f6|d6-|d6|
f6-|f6-|f2 e2f2|g2 a2b2|a6-|a6|f6-|f6|e6-|e6-|e2 d2e2|a2g2e2|
d6-|d6-|d4z2|z2z2f2|d2z2f2|d2z2f2|a2 afdf|e4g2|c2z2e2|A2z2e2|
g2gece|d4f2|d2z2f2|d2z2f2|a2afdf|e4g2|c2z2e2|A2z2e2|g2gece|d2z2f2|
d2z2f2|d2z2f2|d2z2a2|d2z2z2|

